X: 199
T:Thompson's
H: As recorded by Angus Chisholm
C:Jig
M:6/8
L:1/8
Z:J Weismiller , 14/11/1998
K:F
:A|FAc fef|gfe f2A|FAc fed|cBAG2A|FAc fef|gfe fga|gfe fga|gfe fed|cBA
G2:|
b|agf gfe|fcA F2b|agf gBA|BAB G2b|agf gfe|fed cBA|Bdg Acf|ede f2:|

